X: 39
T: Sitting with the turtle
N: Derived from ojibwa39.krn
C: Chippewa Songs ~ 1910
O: Red Wing, Minnesota, U.S.A
N: Chippewa Music by Frances Densmore, 1910
Z: transcribed to **kern format by Paul von Hippel and Daniel T. Shanahan
L: 1/8
M: 2/4
Q: 1/4=108
K: Gb clef=bass
%%linebreak <none>
E/ E/ E/> E/ D/ B, B,/ | 
B,2B,3/ D/ | 
[M:3/4]D4-D D | 
[M:2/4]D> D D B, | 
B,2B,3/ B,/ | 
[M:3/4]B,6 | 
[M:2/4]D/ B,/ D/> D/ B, G, | 
G,< E, E,3/ E,/ | 
[M:3/4]E,4-E, E, | 
[M:2/4]D,> D, D,/ B,,3/ | 
B,,2B,,3/ D,/ | 
[M:3/4]D,4-D,3/ D,/ | 
[M:2/4]D,> D, D,/ B,,3/ | 
B,,2B,,3/ B,,/ | 
B,,4 |]  



